X:1
T:The Mistletoe Bough
M:3/4
L:1/4
K:A
 E/2| E/2E/2E/2 E/2E/2 E/2| F F/2 E E/2| F/2F/2F/2 G/2F/2 E/2| B B/2 A E/2|\
 E/2E/2E/2 E/2E/2 E/2| F F/2 E3/2| F/2F/2F/2G/2-F/2 E/2| B B/2 A E/2|\
M:3/4
 A3/2 G/2 A| B2 A/2B/2| c2 A| E2 C| D3/2 C/2 B,| G F E| A2 G| A2 F|\
 A3/2 G/2 A| B2 A| c2 A| E2 C| D3/2 C/2 B,| G- F E| A2 G| A3| A- G A|\
 B A B| c3| D- C D| E c B| A3|
